images/ico_on.svg

<svg width="22" height="12" viewBox="0 0 22 12" fill="none" xmlns="http://www.w3.org/2000/svg">
<path fill-rule="evenodd" clip-rule="evenodd" d="M4.70711 9.29291L14 0L15.4142 1.41422L5.41421 11.4142C5.22668 11.6017 4.97232 11.7071 4.70711 11.7071C4.44189 11.7071 4.18753 11.6017 4 11.4142L0 7.41421L1.41421 6.00001L4.70711 9.29291ZM10.7073 9.29301L19.9998 2.00272e-05L21.4141 1.4142L11.4145 11.4142C11.0241 11.8047 10.391 11.8047 10.0004 11.4143L8.5 9.91431L9.91403 8.49991L10.7073 9.29301Z" fill="#2395FF"/>
</svg>

<?xml version="1.0" encoding="UTF-8"?>
<svg xmlns="http://www.w3.org/2000/svg" version="1.1" viewBox="0 0 22 12">
  <defs>
    <style>
      .cls-1 {
        fill: #047aff;
        fill-rule: evenodd;
      }
    </style>
  </defs>
  <!-- Generator: Adobe Illustrator 28.7.1, SVG Export Plug-In . SVG Version: 1.2.0 Build 142)  -->
  <g>
    <g id="_레이어_1" data-name="레이어_1">
      <path class="cls-1" d="M4.7,9.3L14,0l1.4,1.4L5.4,11.4c-.2.2-.4.3-.7.3s-.5-.1-.7-.3L0,7.4l1.4-1.4,3.3,3.3ZM10.7,9.3L20,0l1.4,1.4-10,10c-.4.4-1,.4-1.4,0l-1.5-1.5,1.4-1.4.8.8Z"/>
    </g>
  </g>
</svg>
